; HEADER_BLOCK_START
; generated by OrcaSlicer 2.1.1 on 2025-11-11 at 12:54:57
; total layer number: 168
; filament_density: 1.24
; filament_diameter: 1.75
; max_z_height: 26.92
; HEADER_BLOCK_END

; THUMBNAIL_BLOCK_START

;
; THUMBNAIL_BLOCK_END

; THUMBNAIL_BLOCK_START

;
; THUMBNAIL_BLOCK_END

; external perimeters extrusion width = 0.45mm
; perimeters extrusion width = 0.45mm
; infill extrusion width = 0.45mm
; solid infill extrusion width = 0.45mm
; top infill extrusion width = 0.40mm
; first layer extrusion width = 0.42mm

; external perimeters extrusion width = 0.45mm
; perimeters extrusion width = 0.45mm
; infill extrusion width = 0.45mm
; solid infill extrusion width = 0.45mm
; top infill extrusion width = 0.40mm
; first layer extrusion width = 0.42mm

; EXECUTABLE_BLOCK_START
M73 P0 R34
M201 X500 Y500 Z100 E5000
M203 X500 Y500 Z10 E60
M204 P500 R1000 T500
M205 X8.00 Y8.00 Z0.40 E5.00 ; sets the jerk limits, mm/sec
;TYPE:Custom
G90 ; use absolute coordinates
M83 ; extruder relative mode
M104 S150 ; set temporary nozzle temp to prevent oozing during homing
M140 S60 ; set final bed temp
G4 S30 ; allow partial nozzle warmup
G28 ; home all axis and restore leveling
G1 Z50 F240
G1 X2.0 Y10 F3000
M104 S220 ; set final nozzle temp
M190 S60 ; wait for bed temp to stabilize
M109 S220 ; wait for nozzle temp to stabilize
G1 Z0.28 F240
G92 E0
G1 X2.0 Y140 E10 F1500 ; prime the nozzle
M73 P1 R34
G1 X2.3 Y140 F5000
G92 E0
M73 P1 R33
G1 X2.3 Y10 E10 F1200 ; prime the nozzle
G92 E0
G90
G21
M83 ; use relative distances for extrusion
; filament start gcode
M106 S0
;LAYER_CHANGE
;Z:0.2
;HEIGHT:0.2
;BEFORE_LAYER_CHANGE
;0.2
G92 E0

G1 E-.8 F1800
;_SET_FAN_SPEED_CHANGING_LAYER
G1 Z.4 F9000
G1 X102.45 Y102.371
G1 Z.4
G1 Z.2
G1 E.8 F1800
;TYPE:Skirt
;WIDTH:0.42
G1 F3000
G1 X102.898 Y101.922 E.0195
G1 X104.284 Y100.887 E.05314
G1 X105.495 Y100.231 E.04233
G1 X106.781 Y99.735 E.04233
G1 X107.772 Y99.475 E.0315
G1 X109.135 Y99.277 E.04233
G1 X110.865 Y99.277 E.05314
G1 X112.228 Y99.475 E.04233
G1 X113.554 Y99.846 E.04233
G1 X114.823 Y100.384 E.04233
G1 X115.716 Y100.887 E.0315
G1 X116.833 Y101.693 E.04233
G1 X118.076 Y102.896 E.05314
G1 X118.917 Y103.987 E.04233
G1 X119.611 Y105.177 E.04233
G1 X120.148 Y106.445 E.04233
G1 X120.518 Y107.772 E.04233
G1 X120.716 Y109.135 E.04233
G1 X120.749 Y110.16 E.0315
G1 X120.75 Y127.232 E.52457
G1 X120.639 Y128.517 E.03963
G1 X120.354 Y129.864 E.04233
G1 X119.757 Y131.488 E.05314
G1 X119.1 Y132.698 E.04233
G1 X118.514 Y133.539 E.0315
G1 X117.351 Y134.819 E.05314
G1 X116.287 Y135.695 E.04233
G1 X115.428 Y136.254 E.0315
G1 X113.87 Y137.005 E.05314
G1 X112.556 Y137.417 E.04233
G1 X111.549 Y137.613 E.0315
G1 X109.824 Y137.724 E.05314
G1 X108.451 Y137.613 E.04233
G1 X107.103 Y137.328 E.04233
G1 X106.13 Y137.004 E.0315
G1 X104.879 Y136.427 E.04232
G1 X103.713 Y135.695 E.04233
G1 X102.649 Y134.819 E.04233
G1 X101.706 Y133.815 E.04233
G1 X100.717 Y132.396 E.05314
G1 X100.1 Y131.165 E.04233
G1 X99.646 Y129.864 E.04233
G1 X99.417 Y128.865 E.0315
G1 X99.25 Y127.232 E.05045
G1 X99.251 Y110.16 E.52457
G1 X99.284 Y109.135 E.0315
G1 X99.482 Y107.772 E.04233
G1 X99.974 Y106.114 E.05314
G1 X100.552 Y104.864 E.04233
G1 X101.083 Y103.987 E.0315
G1 X101.925 Y102.896 E.04233
G1 X102.421 Y102.399 E.0216
G1 X102.687 Y102.665 F9000
G1 F3000
G1 X103.16 Y102.193 E.02056
G1 X104.469 Y101.216 E.05018
G1 X105.637 Y100.581 E.04084
G1 X106.876 Y100.1 E.04084
G1 X107.868 Y99.84 E.0315
G1 X109.183 Y99.651 E.04084
G1 X110.817 Y99.651 E.05018
G1 X112.132 Y99.84 E.04084
G1 X113.413 Y100.196 E.04084
G1 X114.363 Y100.581 E.0315
G1 X115.531 Y101.216 E.04084
G1 X116.608 Y101.995 E.04084
G1 X117.576 Y102.906 E.04084
G1 X118.594 Y104.183 E.05018
G1 X119.266 Y105.329 E.04084
G1 X119.787 Y106.553 E.04084
G1 X120.146 Y107.832 E.04084
G1 X120.339 Y109.147 E.04084
G1 X120.372 Y110.172 E.0315
G1 X120.373 Y127.232 E.5242
G1 X120.264 Y128.48 E.03851
M73 P2 R33
G1 X119.987 Y129.781 E.04084
G1 X119.423 Y131.313 E.05018
G1 X118.791 Y132.482 E.04084
G1 X118.204 Y133.323 E.0315
G1 X117.106 Y134.532 E.05018
G1 X116.326 Y135.197 E.0315
G1 X115.223 Y135.938 E.04084
G1 X113.751 Y136.647 E.05018
G1 X112.778 Y136.97 E.0315
G1 X111.477 Y137.243 E.04084
G1 X109.848 Y137.348 E.05018
G1 X108.523 Y137.243 E.04084
G1 X107.516 Y137.047 E.0315
G1 X106.268 Y136.653 E.04021
G1 X105.043 Y136.088 E.04147
G1 X103.918 Y135.379 E.04084
G1 X102.894 Y134.532 E.04084
G1 X101.986 Y133.561 E.04084
G1 X101.051 Y132.222 E.05018
G1 X100.454 Y131.035 E.04084
G1 X100.1 Y130.073 E.0315
G1 X99.785 Y128.781 E.04084
G1 X99.627 Y127.232 E.04785
G1 X99.628 Y110.172 E.5242
G1 X99.661 Y109.147 E.0315
G1 X99.854 Y107.832 E.04084
G1 X100.319 Y106.267 E.05018
G1 X100.874 Y105.059 E.04084
G1 X101.406 Y104.183 E.0315
G1 X102.219 Y103.131 E.04084
G1 X102.658 Y102.693 E.01906
; printing object cherepashka.bolt id:2132419157248 copy 0
G1 E-.2 F1800
;WIPE_START
G1 F3000
G1 X103.16 Y102.193 E-.42538
G1 X103.394 Y102.019 E-.17462
;WIPE_END
G1 Z.6 F9000
G1 X116.804 Y107.499 Z.6
G1 Z.2
G1 E.8 F1800
;TYPE:Inner wall
;WIDTH:0.545965
G1 F900
G1 X117.081 Y108.459 E.04099
;WIDTH:0.546745
G1 X117.226 Y109.526 E.04422
;WIDTH:0.549725
G1 X117.242 Y110.195 E.0276
G1 X117.212 Y110.602 E.01689
;WIDTH:0.537209
G1 X117.071 Y111.539 E.03815
;WIDTH:0.55153
G1 X116.94 Y112.069 E.02261
G1 X116.624 Y112.927 E.03791
;WIDTH:0.5493
G1 X116.188 Y113.763 E.03891
;WIDTH:0.546742
G1 X115.614 Y114.573 E.04077
;WIDTH:0.542304
G1 X114.9 Y115.322 E.04209
;WIDTH:0.550568
G1 X114.346 Y115.788 E.02998
G1 X114.019 Y116.012 E.01637
;WIDTH:0.53731
G1 X113.199 Y116.485 E.03814
;WIDTH:0.551533
G1 X112.704 Y116.713 E.02261
G1 X111.822 Y117.004 E.03848
;WIDTH:0.549937
G1 X110.911 Y117.181 E.03836
;WIDTH:0.546746
G1 X109.919 Y117.237 E.0408
;WIDTH:0.542307
G1 X108.846 Y117.14 E.04383
;WIDTH:0.549938
G1 X108.178 Y117.004 E.02816
G1 X107.799 Y116.887 E.01637
;WIDTH:0.537313
G1 X106.919 Y116.541 E.03812
;WIDTH:0.551512
G1 X106.43 Y116.296 E.02266
G1 X105.653 Y115.789 E.03844
;WIDTH:0.549938
G1 X104.947 Y115.186 E.03836
;WIDTH:0.546746
G1 X104.285 Y114.445 E.0408
;WIDTH:0.542305
G1 X103.692 Y113.546 E.04383
;WIDTH:0.549937
G1 X103.381 Y112.939 E.02816
G1 X103.237 Y112.571 E.01637
;WIDTH:0.537311
G1 X102.958 Y111.666 E.03814
;WIDTH:0.551532
G1 X102.846 Y111.132 E.02261
G1 X102.758 Y110.208 E.03847
;WIDTH:0.549937
G1 X102.788 Y109.28 E.03836
;WIDTH:0.546747
G1 X102.955 Y108.3 E.0408
;WIDTH:0.542306
G1 X103.289 Y107.277 E.0438
;WIDTH:0.549901
G1 X103.569 Y106.655 E.02819
G1 X103.767 Y106.312 E.01635
;WIDTH:0.537314
G1 X104.301 Y105.53 E.03814
;WIDTH:0.551535
G1 X104.648 Y105.109 E.02261
G1 X105.316 Y104.464 E.03847
;WIDTH:0.549939
G1 X106.061 Y103.91 E.03836
;WIDTH:0.549174
G1 X106.93 Y103.43 E.04096
;WIDTH:0.541526
G1 X107.938 Y103.051 E.04378
;WIDTH:0.549938
G1 X108.599 Y102.883 E.02816
G1 X108.991 Y102.824 E.01637
;WIDTH:0.537392
G1 X109.963 Y102.754 E.03926
;WIDTH:0.553081
G1 X110.48 Y102.764 E.02153
G1 X111.401 Y102.883 E.03859
;WIDTH:0.549938
G1 X112.299 Y103.119 E.03836
;WIDTH:0.546746
G1 X113.217 Y103.5 E.0408
;WIDTH:0.542305
G1 X114.107 Y104.028 E.04211
;WIDTH:0.55061
G1 X114.684 Y104.465 E.02994
G1 X114.975 Y104.734 E.01639
;WIDTH:0.537311
G1 X115.618 Y105.428 E.03814
;WIDTH:0.551532
G1 X115.951 Y105.86 E.02261
G1 X116.431 Y106.655 E.03847
;WIDTH:0.549936
G1 X116.788 Y107.462 E.03645
G1 X117.226 Y107.376 F9000
;TYPE:Outer wall
;WIDTH:0.419999
G1 F900
G1 X117.514 Y108.389 E.03236
G1 X117.655 Y109.298 E.02826
G1 X117.685 Y110.224 E.02848
G1 X117.591 Y111.219 E.0307
G1 X117.372 Y112.18 E.03027
G1 X117.036 Y113.091 E.02985
G1 X116.575 Y113.978 E.03071
G1 X116.012 Y114.786 E.03027
G1 X115.359 Y115.505 E.02985
G1 X114.599 Y116.154 E.03071
G1 X113.773 Y116.692 E.03027
G1 X112.886 Y117.119 E.03028
G1 X111.95 Y117.43 E.03028
G1 X110.983 Y117.618 E.03028
G1 X110 Y117.681 E.03028
G1 X109.017 Y117.618 E.03028
G1 X108.05 Y117.43 E.03028
G1 X107.128 Y117.124 E.02985
G1 X106.227 Y116.692 E.03071
G1 X105.401 Y116.154 E.03027
G1 X104.651 Y115.515 E.03028
G1 X103.988 Y114.786 E.03028
G1 X103.424 Y113.978 E.03028
G1 X102.969 Y113.104 E.03028
G1 X102.628 Y112.18 E.03028
G1 X102.409 Y111.219 E.03028
G1 X102.315 Y110.238 E.03028
G1 X102.346 Y109.253 E.03028
G1 X102.503 Y108.281 E.03028
G1 X102.78 Y107.349 E.02985
G1 X103.183 Y106.435 E.03071
G1 X103.693 Y105.593 E.03027
G1 X104.308 Y104.822 E.03028
G1 X105.016 Y104.137 E.03028
G1 X105.805 Y103.547 E.03028
G1 X106.652 Y103.071 E.02985
G1 X107.577 Y102.694 E.03071
G1 X108.53 Y102.444 E.03027
G1 X109.507 Y102.318 E.03028
G1 X110.493 Y102.318 E.03028
G1 X111.47 Y102.444 E.03028
G1 X112.423 Y102.694 E.03028
G1 X113.336 Y103.064 E.03028
G1 X114.195 Y103.547 E.03028
G1 X114.984 Y104.137 E.03028
G1 X115.66 Y104.791 E.0289
G1 X115.999 Y105.207 E.0165
G1 X116.33 Y105.631 E.0165
G1 X116.835 Y106.476 E.03026
G1 X117.212 Y107.339 E.02892
;WIPE_START
G1 X117.488 Y108.3 E-.8
;WIPE_END
G1 Z.6 F9000
G1 X111.144 Y116.633 Z.6
G1 Z.2
G1 E.8 F1800
;TYPE:Inner wall
;WIDTH:0.539011
G1 F900
G1 X111.052 Y116.655 E.00383
;WIDTH:0.542307
G1 X110.047 Y116.739 E.04103
;WIDTH:0.546747
G1 X109.124 Y116.679 E.03796
;WIDTH:0.549938
G1 X108.283 Y116.508 E.03547
;WIDTH:0.55118
G1 X107.482 Y116.24 E.03499
G1 X107.116 Y116.088 E.01641
;WIDTH:0.537313
G1 X106.239 Y115.59 E.04061
;WIDTH:0.539013
G1 X105.446 Y114.968 E.04075
;WIDTH:0.542305
G1 X104.754 Y114.235 E.04103
;WIDTH:0.546748
G1 X104.226 Y113.476 E.03796
;WIDTH:0.549937
G1 X103.834 Y112.712 E.03547
;WIDTH:0.551533
G1 X103.541 Y111.906 E.03556
G1 X103.35 Y111.07 E.03555
G1 X103.278 Y110.542 E.02206
;WIDTH:0.539012
G1 X103.27 Y109.534 E.04075
;WIDTH:0.542305
G1 X103.412 Y108.536 E.04103
;WIDTH:0.546676
G1 X103.672 Y107.663 E.03741
;WIDTH:0.549901
G1 X104.029 Y106.867 E.03605
;WIDTH:0.551533
G1 X104.476 Y106.136 E.03553
G1 X105.011 Y105.465 E.03555
G1 X105.378 Y105.08 E.02206
;WIDTH:0.539613
G1 X106.132 Y104.468 E.03928
;WIDTH:0.542336
G1 X107.027 Y103.935 E.04239
;WIDTH:0.5467
G1 X107.888 Y103.587 E.03814
;WIDTH:0.549938
G1 X108.72 Y103.376 E.03544
;WIDTH:0.551534
G1 X109.571 Y103.269 E.03556
;WIDTH:0.553081
G1 X110.43 Y103.271 E.03572
G1 X110.955 Y103.315 E.02191
;WIDTH:0.539013
G1 X111.944 Y103.533 E.0409
;WIDTH:0.542306
G1 X112.885 Y103.893 E.04103
;WIDTH:0.546744
G1 X113.69 Y104.347 E.03796
;WIDTH:0.55061
G1 X114.375 Y104.867 E.03558
;WIDTH:0.551532
G1 X114.989 Y105.465 E.0355
G1 X115.524 Y106.136 E.03555
G1 X115.817 Y106.579 E.02206
;WIDTH:0.53901
G1 X116.262 Y107.484 E.04075
;WIDTH:0.542196
G1 X116.567 Y108.445 E.04102
;WIDTH:0.546745
G1 X116.714 Y109.358 E.03796
;WIDTH:0.549725
G1 X116.735 Y110.203 E.03491
;WIDTH:0.551503
G1 X116.65 Y111.07 E.03614
G1 X116.459 Y111.906 E.03552
G1 X116.295 Y112.412 E.02206
;WIDTH:0.538771
G1 X115.865 Y113.324 E.04073
;WIDTH:0.542304
G1 X115.304 Y114.162 E.04103
;WIDTH:0.546674
G1 X114.691 Y114.836 E.03741
;WIDTH:0.550568
G1 X114.022 Y115.398 E.03615
;WIDTH:0.551532
G1 X113.303 Y115.863 E.03546
G1 X112.531 Y116.235 E.03555
G1 X112.032 Y116.423 E.02206
;WIDTH:0.539011
G1 X111.183 Y116.624 E.0353
G1 X111.041 Y116.209 F9000
;TYPE:Outer wall
;WIDTH:0.419999
G1 F900
G1 X110.954 Y116.229 E.00273
G1 X110.014 Y116.302 E.02898
G1 X109.157 Y116.239 E.0264
G1 X108.381 Y116.077 E.02436
G1 X108.127 Y116.017 E.00803
G1 X107.275 Y115.683 E.02811
G1 X106.457 Y115.213 E.02898
G1 X105.719 Y114.627 E.02898
G1 X105.076 Y113.937 E.02898
G1 X104.59 Y113.228 E.0264
G1 X104.121 Y112.284 E.03239
G1 X103.852 Y111.41 E.02811
G1 X103.709 Y110.477 E.02898
G1 X103.707 Y109.534 E.02898
G1 X103.845 Y108.601 E.02898
G1 X104.093 Y107.793 E.02599
G1 X104.428 Y107.059 E.02479
G1 X104.543 Y106.825 E.00801
G1 X105.058 Y106.069 E.02811
G1 X105.698 Y105.376 E.02898
G1 X106.405 Y104.81 E.02783
G1 X107.249 Y104.314 E.03008
G1 X108.049 Y103.997 E.02646
G1 X109.074 Y103.75 E.03237
G1 X109.949 Y103.685 E.02696
G1 X110.925 Y103.75 E.03008
G1 X111.846 Y103.958 E.02901
G1 X112.725 Y104.301 E.02898
G1 X113.47 Y104.728 E.0264
G1 X114.302 Y105.376 E.03239
G1 X114.924 Y106.047 E.02812
G1 X115.457 Y106.825 E.02898
G1 X115.868 Y107.673 E.02898
G1 X116.148 Y108.574 E.02898
G1 X116.279 Y109.423 E.0264
G1 X116.293 Y110.203 E.02395
G1 X116.291 Y110.477 E.00844
G1 X116.155 Y111.382 E.02811
G1 X115.879 Y112.284 E.02898
G1 X115.472 Y113.134 E.02898
G1 X114.942 Y113.915 E.02898
G1 X114.368 Y114.536 E.02599
G1 X113.543 Y115.213 E.0328
G1 X112.75 Y115.671 E.02812
G1 X111.873 Y116.017 E.02898
G1 X111.08 Y116.2 E.02502
; stop printing object cherepashka.bolt id:2132419157248 copy 0
; printing object cherepashka.bolt id:2132420761600 copy 0
;WIPE_START
G1 X110.954 Y116.229 E-.10301
G1 X110.086 Y116.296 E-.69699
;WIPE_END
G1 Z.6 F9000
G1 X116.804 Y124.482 Z.6
G1 Z.2
G1 E.8 F1800
;TYPE:Inner wall
;WIDTH:0.545965
G1 F900
G1 X117.081 Y125.443 E.04099
;WIDTH:0.546745
G1 X117.226 Y126.51 E.04422
;WIDTH:0.549725
G1 X117.242 Y127.178 E.0276
G1 X117.212 Y127.586 E.01689
;WIDTH:0.537209
G1 X117.071 Y128.522 E.03815
;WIDTH:0.55153
G1 X116.94 Y129.052 E.02261
G1 X116.624 Y129.91 E.03791
;WIDTH:0.5493
G1 X116.188 Y130.747 E.03891
;WIDTH:0.546742
G1 X115.614 Y131.556 E.04077
;WIDTH:0.542304
G1 X114.9 Y132.305 E.04209
;WIDTH:0.550568
G1 X114.346 Y132.772 E.02998
G1 X114.019 Y132.995 E.01637
;WIDTH:0.53731
G1 X113.199 Y133.468 E.03814
;WIDTH:0.551533
G1 X112.704 Y133.697 E.02261
G1 X111.822 Y133.988 E.03848
;WIDTH:0.549937
G1 X110.911 Y134.165 E.03836
;WIDTH:0.546746
G1 X109.919 Y134.22 E.0408
;WIDTH:0.542307
G1 X108.846 Y134.124 E.04383
;WIDTH:0.549938
G1 X108.178 Y133.988 E.02816
G1 X107.799 Y133.871 E.01637
;WIDTH:0.537313
G1 X106.919 Y133.524 E.03812
;WIDTH:0.551512
G1 X106.43 Y133.279 E.02266
G1 X105.653 Y132.772 E.03844
;WIDTH:0.549938
G1 X104.947 Y132.17 E.03836
;WIDTH:0.546746
G1 X104.285 Y131.429 E.0408
;WIDTH:0.542305
G1 X103.692 Y130.53 E.04383
;WIDTH:0.549937
G1 X103.381 Y129.923 E.02816
G1 X103.237 Y129.554 E.01637
;WIDTH:0.537311
G1 X102.958 Y128.649 E.03814
;WIDTH:0.551532
G1 X102.846 Y128.115 E.02261
G1 X102.758 Y127.191 E.03847
;WIDTH:0.549937
G1 X102.788 Y126.263 E.03836
;WIDTH:0.546747
G1 X102.955 Y125.284 E.0408
;WIDTH:0.542306
G1 X103.289 Y124.26 E.0438
;WIDTH:0.549901
G1 X103.569 Y123.638 E.02819
G1 X103.767 Y123.295 E.01635
;WIDTH:0.537314
G1 X104.301 Y122.514 E.03814
;WIDTH:0.551535
G1 X104.648 Y122.093 E.02261
G1 X105.316 Y121.448 E.03847
;WIDTH:0.549939
G1 X106.061 Y120.894 E.03836
;WIDTH:0.549174
G1 X106.93 Y120.414 E.04096
;WIDTH:0.541526
G1 X107.938 Y120.034 E.04378
;WIDTH:0.549938
G1 X108.599 Y119.867 E.02816
G1 X108.991 Y119.808 E.01637
;WIDTH:0.537392
G1 X109.963 Y119.738 E.03926
;WIDTH:0.553081
G1 X110.48 Y119.748 E.02153
G1 X111.401 Y119.867 E.03859
;WIDTH:0.549938
G1 X112.299 Y120.103 E.03836
;WIDTH:0.546746
G1 X113.217 Y120.483 E.0408
;WIDTH:0.542305
G1 X114.107 Y121.011 E.04211
;WIDTH:0.55061
G1 X114.684 Y121.448 E.02994
G1 X114.975 Y121.717 E.01639
;WIDTH:0.537311
G1 X115.618 Y122.412 E.03814
;WIDTH:0.551532
G1 X115.951 Y122.844 E.02261
G1 X116.431 Y123.638 E.03847
;WIDTH:0.549936
G1 X116.788 Y124.445 E.03645
G1 X117.226 Y124.36 F9000
;TYPE:Outer wall
;WIDTH:0.419999
G1 F900
G1 X117.514 Y125.373 E.03236
G1 X117.655 Y126.281 E.02826
G1 X117.685 Y127.208 E.02848
G1 X117.591 Y128.203 E.0307
G1 X117.372 Y129.163 E.03027
G1 X117.036 Y130.075 E.02985
G1 X116.575 Y130.962 E.03071
G1 X116.012 Y131.77 E.03027
G1 X115.359 Y132.489 E.02985
G1 X114.599 Y133.138 E.03071
G1 X113.773 Y133.675 E.03027
G1 X112.886 Y134.103 E.03028
G1 X111.95 Y134.413 E.03028
G1 X110.983 Y134.602 E.03028
G1 X110 Y134.665 E.03028
G1 X109.017 Y134.602 E.03028
G1 X108.05 Y134.413 E.03028
G1 X107.128 Y134.107 E.02985
G1 X106.227 Y133.675 E.03071
G1 X105.401 Y133.138 E.03027
G1 X104.651 Y132.499 E.03028
G1 X103.988 Y131.77 E.03028
G1 X103.424 Y130.961 E.03028
G1 X102.969 Y130.088 E.03028
G1 X102.628 Y129.163 E.03028
G1 X102.409 Y128.203 E.03028
G1 X102.315 Y127.222 E.03028
G1 X102.346 Y126.237 E.03028
G1 X102.503 Y125.264 E.03028
G1 X102.78 Y124.333 E.02985
G1 X103.183 Y123.419 E.03071
G1 X103.693 Y122.576 E.03027
G1 X104.308 Y121.806 E.03028
G1 X105.016 Y121.12 E.03028
G1 X105.805 Y120.531 E.03028
